localPackages/DesignSystem/Sources/DesignSystem/Resources/Assets.xcassets/IconSet/ic-text-align-justify.imageset/ic-text-align-justify.svg

<svg width="24" height="24" viewBox="0 0 24 24" fill="none" xmlns="http://www.w3.org/2000/svg">
<g id="ic-text-align-justify">
<path id="Icon" fill-rule="evenodd" clip-rule="evenodd" d="M2.25 3L21.75 3C22.1642 3 22.5 3.33579 22.5 3.75C22.5 4.16421 22.1642 4.5 21.75 4.5L2.25 4.5C1.83579 4.5 1.5 4.16422 1.5 3.75C1.5 3.33579 1.83579 3 2.25 3ZM1.5 9C1.5 8.58578 1.83579 8.25 2.25 8.25L21.75 8.25C22.1642 8.25 22.5 8.58579 22.5 9C22.5 9.41421 22.1642 9.75 21.75 9.75L2.25 9.75C1.83579 9.75 1.5 9.41421 1.5 9ZM2.25 14.25L21.75 14.25C22.1642 14.25 22.5 14.5858 22.5 15C22.5 15.4142 22.1642 15.75 21.75 15.75L2.25 15.75C1.83579 15.75 1.5 15.4142 1.5 15C1.5 14.5858 1.83579 14.25 2.25 14.25ZM1.5 20.25C1.5 19.8358 1.83579 19.5 2.25 19.5L21.75 19.5C22.1642 19.5 22.5 19.8358 22.5 20.25C22.5 20.6642 22.1642 21 21.75 21L2.25 21C1.83579 21 1.5 20.6642 1.5 20.25Z" fill="#0F0F0F"/>
</g>
</svg>

<svg xmlns="http://www.w3.org/2000/svg" width="24" height="24" viewBox="0 0 24 24">
  <g class="ic-text-align-justify">
    <path fill-rule="evenodd" d="M2.25 3h19.5a.75.75 0 0 1 0 1.5H2.25a.75.75 0 1 1 0-1.5ZM1.5 9a.75.75 0 0 1 .75-.75h19.5a.75.75 0 0 1 0 1.5H2.25A.75.75 0 0 1 1.5 9Zm.75 5.25h19.5a.75.75 0 0 1 0 1.5H2.25a.75.75 0 0 1 0-1.5Zm-.75 6a.75.75 0 0 1 .75-.75h19.5a.75.75 0 0 1 0 1.5H2.25a.75.75 0 0 1-.75-.75Z" class="Icon"/>
  </g>
</svg>
